documentation/images/tomtom-logo-big.svg

<svg xmlns="http://www.w3.org/2000/svg" width="410" height="90">
    <path d="M141.299 29.789a23.86 23.86 0 0 0-23.856 23.856c0 13.176 10.68 23.859 23.856 23.859s23.858-10.683 23.858-23.859c-.016-13.17-10.688-23.842-23.858-23.856zm0 36.328c-6.886 0-12.47-5.584-12.47-12.472a12.47 12.47 0 0 1 12.47-12.469c6.888 0 12.472 5.581 12.472 12.469a12.49 12.49 0 0 1-12.472 12.472zm84.069 11.384h11.376l.003-29.008a20.07 20.07 0 0 0-.454-4.274l-.208-.867c-2.245-8.275-10.29-14.003-19.144-13.637a19.35 19.35 0 0 0-11.477 4.533l-.445.36-.448-.36c-3.23-2.723-7.259-4.315-11.478-4.533-8.858-.371-16.898 5.362-19.144 13.637-.069.261-.133.531-.208.869-.306 1.403-.458 2.835-.45 4.272v29.008h11.378V48.984c0-4.032 3.259-7.307 7.291-7.323s7.32 3.227 7.355 7.259c.002.021.002.043.002.064v28.517h11.4l.003-28.584c.035-4.032 3.323-7.277 7.357-7.258s7.291 3.293 7.291 7.325zm-123.325.011H116.8l-6.603-11.397c-1.429 0-7.312-.008-7.77-.008-3.67 0-6.867-2.654-7.126-5.912l-.088-1.536V41.475h14.982l5.856-10.302H95.213V12.485l-11.397 7.886v10.253h-7.192v11.397h7.192l.011 15.563.002.933.043.867c.392 7.557 4.112 13.12 11.061 16.536a16.72 16.72 0 0 0 6.475 1.584h.635zm207.512-47.723c-13.176 0-23.859 10.68-23.859 23.856s10.683 23.859 23.859 23.859 23.856-10.683 23.856-23.859c-.014-13.168-10.688-23.842-23.856-23.856zm0 36.328c-6.888 0-12.472-5.584-12.472-12.472s5.584-12.469 12.472-12.469a12.47 12.47 0 0 1 12.469 12.469c-.008 6.886-5.587 12.464-12.469 12.472zm84.066 11.384h11.376L405 48.493c.005-1.437-.147-2.869-.453-4.274l-.208-.867c-2.246-8.275-10.291-14.003-19.144-13.637-4.216.218-8.248 1.81-11.475 4.533l-.448.36-.448-.36c-3.227-2.723-7.259-4.315-11.475-4.533-8.861-.371-16.898 5.362-19.144 13.637a16.44 16.44 0 0 0-.21.869c-.304 1.403-.456 2.835-.451 4.272l.003 29.008h11.376V48.984c0-4.032 3.258-7.307 7.293-7.323s7.32 3.227 7.355 7.259c0 .016.002.04.002.064v28.517h11.398l.002-28.584a7.33 7.33 0 0 1 7.358-7.253c4.032.019 7.288 3.291 7.29 7.32zm-123.322.011h14.757l-6.603-11.397c-1.432 0-7.314-.008-7.773-.008-3.669 0-6.864-2.654-7.125-5.912l-.088-1.536V41.475h14.984l5.853-10.302h-20.837V12.485l-11.398 7.886v10.253h-7.189v11.397h7.189l.011 15.563.005.933.043.867c.389 7.557 4.109 13.12 11.059 16.536 2.029.957 4.232 1.496 6.474 1.584h.638z"
          stroke="#fff" stroke-width=".5"/>
    <path d="M31.517 83.507l10.166-17.606H21.355l10.162 17.606zm0-77.014C16.872 6.493 5 18.365 5 33.011s11.872 26.52 26.517 26.52 26.52-11.875 26.52-26.52c-.018-14.638-11.88-26.502-26.52-26.518zm0 40.379c-7.656 0-13.861-6.205-13.861-13.861s6.205-13.862 13.861-13.862 13.862 6.206 13.862 13.862c-.008 7.653-6.208 13.853-13.862 13.861z"
          fill="#e41400"/>
</svg>

<svg xmlns="http://www.w3.org/2000/svg" x="0" y="0" width="410" height="90" viewBox="0, 0, 410, 90" >
    <g stroke="white" stroke-width="0.5">
      <path d="M141.299,29.789 C128.123,29.789 117.443,40.469 117.443,53.645 C117.443,66.821 128.123,77.504 141.299,77.504 C154.475,77.504 165.157,66.821 165.157,53.645 C165.141,40.475 154.469,29.803 141.299,29.789 z M141.299,66.117 C134.413,66.117 128.829,60.533 128.829,53.645 C128.829,46.757 134.413,41.176 141.299,41.176 C148.187,41.176 153.771,46.757 153.771,53.645 C153.763,60.531 148.184,66.109 141.299,66.117 z" fill="#000000"/>
      <path d="M225.368,77.501 L236.744,77.501 L236.747,48.493 C236.749,47.056 236.597,45.624 236.293,44.219 C236.221,43.88 236.155,43.613 236.085,43.352 C233.84,35.077 225.795,29.349 216.941,29.715 C212.723,29.933 208.693,31.525 205.464,34.248 L205.019,34.608 L204.571,34.248 C201.341,31.525 197.312,29.933 193.093,29.715 C184.235,29.344 176.195,35.077 173.949,43.352 C173.88,43.613 173.816,43.883 173.741,44.221 C173.435,45.624 173.283,47.056 173.291,48.493 L173.291,77.501 L184.669,77.501 L184.669,48.984 C184.669,44.952 187.928,41.677 191.96,41.661 C195.992,41.643 199.28,44.888 199.315,48.92 C199.317,48.941 199.317,48.963 199.317,48.984 L199.317,77.501 L210.717,77.501 L210.72,48.917 C210.755,44.885 214.043,41.64 218.077,41.659 C222.109,41.675 225.368,44.952 225.368,48.984 z" fill="#000000"/>
      <path d="M102.043,77.512 L116.8,77.512 L110.197,66.115 C108.768,66.115 102.885,66.107 102.427,66.107 C98.757,66.107 95.56,63.453 95.301,60.195 C95.267,59.768 95.237,59.24 95.213,58.659 L95.213,41.475 L110.195,41.475 L116.051,31.173 L95.213,31.173 L95.213,12.485 L83.816,20.371 L83.816,30.624 L76.624,30.624 L76.624,42.021 L83.816,42.021 L83.827,57.584 C83.827,57.589 83.819,58.309 83.829,58.517 L83.872,59.384 C84.264,66.941 87.984,72.504 94.933,75.92 C96.963,76.877 99.165,77.416 101.408,77.504 L102.043,77.504 z" fill="#000000"/>
      <path d="M309.555,29.789 C296.379,29.789 285.696,40.469 285.696,53.645 C285.696,66.821 296.379,77.504 309.555,77.504 C322.731,77.504 333.411,66.821 333.411,53.645 C333.397,40.477 322.723,29.803 309.555,29.789 z M309.555,66.117 C302.667,66.117 297.083,60.533 297.083,53.645 C297.083,46.757 302.667,41.176 309.555,41.176 C316.443,41.176 322.024,46.757 322.024,53.645 C322.016,60.531 316.437,66.109 309.555,66.117 z" fill="#000000"/>
      <path d="M393.621,77.501 L404.997,77.501 L405,48.493 C405.005,47.056 404.853,45.624 404.547,44.219 C404.475,43.88 404.411,43.613 404.339,43.352 C402.093,35.077 394.048,29.349 385.195,29.715 C380.979,29.933 376.947,31.525 373.72,34.248 L373.272,34.608 L372.824,34.248 C369.597,31.525 365.565,29.933 361.349,29.715 C352.488,29.344 344.451,35.077 342.205,43.352 C342.133,43.613 342.069,43.883 341.995,44.221 C341.691,45.624 341.539,47.056 341.544,48.493 L341.547,77.501 L352.923,77.501 L352.923,48.984 C352.923,44.952 356.181,41.677 360.216,41.661 C364.248,41.643 367.536,44.888 367.571,48.92 C367.571,48.936 367.573,48.96 367.573,48.984 L367.573,77.501 L378.971,77.501 L378.973,48.917 C379.013,44.888 382.301,41.645 386.331,41.664 C390.363,41.683 393.619,44.955 393.621,48.984 z" fill="#000000"/>
      <path d="M270.299,77.512 L285.056,77.512 L278.453,66.115 C277.021,66.115 271.139,66.107 270.68,66.107 C267.011,66.107 263.816,63.453 263.555,60.195 C263.523,59.768 263.491,59.24 263.467,58.659 L263.467,41.475 L278.451,41.475 L284.304,31.173 L263.467,31.173 L263.467,12.485 L252.069,20.371 L252.069,30.624 L244.88,30.624 L244.88,42.021 L252.069,42.021 L252.08,57.584 C252.08,57.589 252.075,58.309 252.085,58.517 L252.128,59.384 C252.517,66.941 256.237,72.504 263.187,75.92 C265.216,76.877 267.419,77.416 269.661,77.504 L270.299,77.504 z" fill="#000000"/>
    </g>
    <g>
      <path d="M31.517,83.507 L41.683,65.901 L21.355,65.901 L31.517,83.507 z" fill="#E41400"/>
      <path d="M31.517,6.493 C16.872,6.493 5,18.365 5,33.011 C5,47.656 16.872,59.531 31.517,59.531 C46.163,59.531 58.037,47.656 58.037,33.011 C58.019,18.373 46.157,6.509 31.517,6.493 z M31.517,46.872 C23.861,46.872 17.656,40.667 17.656,33.011 C17.656,25.355 23.861,19.149 31.517,19.149 C39.173,19.149 45.379,25.355 45.379,33.011 C45.371,40.664 39.171,46.864 31.517,46.872 z" fill="#E41400"/>
    </g>
</svg>
